public/static/wallets/TokenPocket.svg

<svg fill="none" viewBox="0 0 1024 1024" xmlns="http://www.w3.org/2000/svg" xmlns:xlink="http://www.w3.org/1999/xlink"><linearGradient id="a" gradientUnits="userSpaceOnUse" x1="709.844" x2="667.753" y1="556.827" y2="556.827"><stop offset="0" stop-color="#fff"/><stop offset=".967" stop-color="#fff" stop-opacity=".323"/><stop offset="1" stop-color="#fff" stop-opacity=".3"/></linearGradient><clipPath id="b"><path d="m168 277h728.448v470h-728.448z"/></clipPath><path d="m1041.52 0h-1068.52v1024h1068.52z" fill="#2980fe"/><g clip-path="url(#b)"><path d="m406.796 438.643h.131c-.131-.786-.131-1.703-.131-2.489z" fill="#29aeff"/><path d="m667.602 463.533h-144.353v260.543c0 12.313 9.955 22.269 22.268 22.269h99.816c12.314 0 22.269-9.956 22.269-22.269zm-214.039-186.533h-263.294c-12.314 0-22.269 9.955-22.269 22.269v90.384c0 12.314 9.955 22.269 22.269 22.269h84.752v312.809c0 12.314 9.955 22.269 22.268 22.269h94.839c12.313 0 22.268-9.955 22.268-22.269v-312.809h38.774c37.202 0 67.461-30.259 67.461-67.461.393-37.202-29.866-67.461-67.068-67.461z" fill="#fff"/><path d="m667.735 463.533v181.817c4.978 1.179 10.086 2.096 15.326 2.882 7.336 1.048 14.933 1.703 22.531 1.834h1.31v-144.616c-21.876-1.441-39.167-19.649-39.167-41.917z" fill="url(#a)"/><g fill="#fff"><path d="m709.781 277c-102.959 0-186.532 83.573-186.532 186.533 0 88.551 61.697 162.692 144.484 181.817v-181.817c0-23.186 18.863-42.049 42.048-42.049 23.186 0 42.049 18.863 42.049 42.049 0 19.518-13.23 35.892-31.307 40.607a41.665 41.665 0 0 1 -10.742 1.441v144.485c3.668 0 7.205-.131 10.742-.262 97.982-5.633 175.791-86.848 175.791-186.271.131-102.96-83.442-186.533-186.533-186.533z"/><path d="m709.78 650.066v-144.485c-1.047 0-1.964 0-3.012-.131v144.616z"/></g></g></svg>

<svg xmlns="http://www.w3.org/2000/svg" fill="none" viewBox="0 0 1024 1024">
  <g mask="url(#mask0_408_225)">
    <path fill="#2980FE" d="M1041.52 0H-27v1024h1068.52V0Z"/>
    <g clip-path="url(#a)">
      <path fill="#29AEFF" d="M406.796 438.643h.131c-.131-.786-.131-1.703-.131-2.489v2.489Z"/>
      <path fill="#fff" d="M667.602 463.533H523.249v260.543c0 12.313 9.955 22.269 22.268 22.269h99.816c12.314 0 22.269-9.956 22.269-22.269V463.533ZM453.563 277H190.269C177.955 277 168 286.955 168 299.269v90.384c0 12.314 9.955 22.269 22.269 22.269h84.752v312.809c0 12.314 9.955 22.269 22.268 22.269h94.839c12.313 0 22.268-9.955 22.268-22.269V411.922h38.774c37.202 0 67.461-30.259 67.461-67.461.393-37.202-29.866-67.461-67.068-67.461Z"/>
      <path fill="url(#b)" d="M667.735 463.533V645.35c4.978 1.179 10.086 2.096 15.326 2.882 7.336 1.048 14.933 1.703 22.531 1.834h1.31V505.45c-21.876-1.441-39.167-19.649-39.167-41.917Z"/>
      <path fill="#fff" d="M709.781 277c-102.959 0-186.532 83.573-186.532 186.533 0 88.551 61.697 162.692 144.484 181.817V463.533c0-23.186 18.863-42.049 42.048-42.049 23.186 0 42.049 18.863 42.049 42.049 0 19.518-13.23 35.892-31.307 40.607a41.665 41.665 0 0 1-10.742 1.441v144.485c3.668 0 7.205-.131 10.742-.262 97.982-5.633 175.791-86.848 175.791-186.271C896.445 360.573 812.872 277 709.781 277Z"/>
      <path fill="#fff" d="M709.78 650.066V505.581c-1.047 0-1.964 0-3.012-.131v144.616h3.012Z"/>
    </g>
  </g>
  <defs>
    <linearGradient id="b" x1="709.844" x2="667.753" y1="556.827" y2="556.827" gradientUnits="userSpaceOnUse">
      <stop stop-color="#fff"/>
      <stop offset=".967" stop-color="#fff" stop-opacity=".323"/>
      <stop offset="1" stop-color="#fff" stop-opacity=".3"/>
    </linearGradient>
    <clipPath id="a">
      <path fill="#fff" d="M168 277h728.448v470H168z"/>
    </clipPath>
  </defs>
</svg>
